X: 222
T: Jaunas Bernuzelis
O: Lithuania
F: http://www.youtube.com/watch?v=OsJfmJyiywU
F: http://www.youtube.com/watch?v=JMttBAq7Ozo
M: 2/4
L: 1/8
K: G
Q: 1/4=96
%%MIDI program 41 % viola
[BG][AF] [dB][cA]|[B2G2] [B2G2]|[BG][AF] [dB][cA]|[B2G2] [B2G2]|
[cA][dB] [e2c2]|[dB][cA] [d2B2]|[AF][BG] [c2A2]|[B2G2] [B2G2]|
[cA][dB] [e2c2]|[dB][cA] [d2B2]|[AF][BG] [c2A2]|[G2G,2] [G2G,2]|



